src/assets/svg/coffee-icon.svg

<svg xmlns="http://www.w3.org/2000/svg" width="25.475" height="39.549" viewBox="1.279 1.986 25.475 39.549"><g data-name="Groupe 1793" transform="translate(1.28 1.986)" clip-path="url(&quot;#a&quot;)"><path d="M16.457 0a3.567 3.567 0 0 0-3.561 3.56v.08h-8.65A1.947 1.947 0 0 0 2.3 5.585v1.693h-.355C.87 7.279 0 8.149 0 9.223v2.18a.487.487 0 0 0 .485.487H2.33L4.06 37.736a1.945 1.945 0 0 0 1.946 1.813h13.461a1.944 1.944 0 0 0 1.945-1.813l1.73-25.846h1.845a.486.486 0 0 0 .487-.487v-2.18A1.944 1.944 0 0 0 23.53 7.28h-.356l.002-1.693a1.949 1.949 0 0 0-1.947-1.947h-1.196v-.078A3.57 3.57 0 0 0 16.456 0Zm-2.589 3.56a2.589 2.589 0 1 1 5.172 0v.08h-5.172v-.08ZM3.915 21.012h5.513a.49.49 0 0 0 .35-.151 4.196 4.196 0 0 1 3.016-1.28c1.137 0 2.226.463 3.015 1.28a.49.49 0 0 0 .35.151h5.397l-.37 5.531H16.14a.486.486 0 0 0-.35.15 4.186 4.186 0 0 1-6.033 0 .486.486 0 0 0-.35-.15H4.286l-.37-5.53Zm2.01-6.69h13.62l-.385 5.716h-2.822.002a5.16 5.16 0 0 0-7.131 0H6.29l-.364-5.715ZM18.68 27.516l-.595 8.63h-10.7l-.595-8.63h2.434a5.146 5.146 0 0 0 7.13 0h2.326Zm1.757 10.157h-.002a.971.971 0 0 1-.972.905H6.003a.973.973 0 0 1-.973-.905l-.677-10.157h1.46l.598 9.155a.488.488 0 0 0 .487.453h11.675a.489.489 0 0 0 .487-.453l.613-9.15h1.46l-.696 10.152Zm1.182-17.635h-1.46l.41-6.168h-.002a.478.478 0 0 0-.13-.366.476.476 0 0 0-.356-.153H5.385a.484.484 0 0 0-.487.52l.409 6.167h-1.46l-.54-8.147h18.856l-.544 8.147ZM24.5 9.223v1.693H.974V9.223c0-.536.435-.972.972-.972h21.58a.974.974 0 0 1 .973.972h.002Zm-2.302-3.637v1.693H3.273V5.586c0-.538.436-.974.974-.974h16.978-.002a.974.974 0 0 1 .974.974Z" fill="#fff" fill-rule="evenodd" data-name="Tracé 1596"/></g><defs><clipPath id="a"><path d="M0 0h25.475v39.55H0V0z" data-name="Rectangle 1833"/></clipPath></defs></svg>

<svg xmlns="http://www.w3.org/2000/svg" xmlns:xlink="http://www.w3.org/1999/xlink" viewBox="0 0 25.475 39.549">
  <defs>
    <clipPath id="clip-path">
      <rect id="Rectangle_1833" data-name="Rectangle 1833" width="25.475" height="39.549" fill="currentColor"/>
    </clipPath>
  </defs>
  <g id="Groupe_1793" data-name="Groupe 1793" clip-path="url(#clip-path)">
    <path id="Tracé_1596" data-name="Tracé 1596" d="M16.457,0A3.567,3.567,0,0,0,12.9,3.561v.078H4.247A1.947,1.947,0,0,0,2.3,5.586V7.279H1.945A1.944,1.944,0,0,0,0,9.223V11.4a.486.486,0,0,0,.485.487H2.33L4.061,37.736a1.945,1.945,0,0,0,1.946,1.813H19.468a1.944,1.944,0,0,0,1.945-1.813L23.144,11.89h1.844a.486.486,0,0,0,.487-.487V9.223a1.944,1.944,0,0,0-1.946-1.945h-.356l0-1.693a1.947,1.947,0,0,0-1.946-1.946h-1.2V3.561A3.567,3.567,0,0,0,16.456,0ZM13.868,3.561a2.588,2.588,0,1,1,5.172,0v.078H13.868ZM3.915,21.011H9.428a.491.491,0,0,0,.35-.151,4.191,4.191,0,0,1,6.031,0,.491.491,0,0,0,.35.151h5.4l-.37,5.531H16.141a.486.486,0,0,0-.35.149,4.184,4.184,0,0,1-6.033,0,.486.486,0,0,0-.35-.149H4.286Zm2.01-6.689h13.62l-.385,5.715H16.34a5.161,5.161,0,0,0-7.131,0H6.29ZM18.68,27.515l-.595,8.63H7.385l-.594-8.63H9.224a5.146,5.146,0,0,0,7.131,0Zm1.756,10.157h0a.971.971,0,0,1-.972.905H6a.973.973,0,0,1-.972-.905L4.353,27.515H5.812l.6,9.155a.488.488,0,0,0,.487.453H18.573a.489.489,0,0,0,.487-.453l.613-9.15h1.459Zm1.182-17.635H20.16l.409-6.168h0a.485.485,0,0,0-.485-.52H5.385a.484.484,0,0,0-.358.153.492.492,0,0,0-.129.367l.409,6.168H3.848l-.54-8.147H22.163ZM24.5,9.223v1.693H.973V9.223a.973.973,0,0,1,.972-.972h21.58a.972.972,0,0,1,.972.972ZM22.2,5.586V7.279H3.273V5.586a.974.974,0,0,1,.974-.974H21.223a.977.977,0,0,1,.974.974Z" transform="translate(0 0)" fill="currentColor"/>
  </g>
</svg>
